X: 82
T:Greig's Strathspey. WI.082
M:C
Q:140
S:Wm Irwin, Folio MS, c1850. AGG's Transcription
R:Strathspey
O:England
A:Lake District
Z:vmp.Chris Partington.2005
K:C
EGG2 cGG2|c>GA>G (c/A/G/E/) G2|\
A,A A>B c/B/A/^G/ A2|A,A A>B c/B/A/^G/ A2|!
Cc c2 egg2|eaa>g ec'c'2|\
c'b/a/ bg/e/ ed/c/ cd/e/|A,>B, C>D EA A2|]
